!!!COM: Angelo Berardi
!!!OPR: Documenti Armonici
!!!ONB: Canon at the fourth above after a semibreve, CF below
!!!PPR: Giacomo Monti
!!!PDT: 1687
!!!PPP: Bologna
!!!ONB: Reprint ed., Bologna: Forni., 1970.  Bk II p. 94.
!!!ONB: Transcribed from Angelo Berardi, Documenti Armonici, 1687,
**kern	**kern	**kern
*CF	*guida	*conseq
*k[]	*k[]	*k[]
*M4/4	*M4/4	*M4/4
=1-	=1-	=1-
1D	2A	1r
.	4.d	.
.	8c	.
=2	=2	=2
1GG	4B	2d
.	4B	.
.	4.e	4.g
.	8d	8f
=3	=3	=3
1AA	4c	4e
.	4c	4e
.	4A	4.a
.	[4c	.
.	.	8g
=4	=4	=4
1D	4c]	4f
.	8B	4f
.	8A	.
.	4B	4d
.	4B	[4f
=5	=5	=5
1C	4c	4f]
.	4C	8e
.	.	8d
.	4.c	4e
.	.	4e
.	8B	.
=6	=6	=6
1D	4A	4f
.	4A	4F
.	[2A	4.f
.	.	8e
=7	=7	=7
1BB	4A]	4d
.	8G#	4d
.	8F#	.
.	[2G#	[2d
=8	=8	=8
1AA	4.G#]	4d]
.	.	8c#
.	16G#	8B
.	16F#	.
.	2E	2c#
=9	=9	=9
[1D	[1F#	[1d
=10	=10	=10
1D]	1F#]	1d]
==	==	==
*-	*-	*-
!!!CDT: ~1636//-1694/4/9
!!!CNT: Italia
!!!ODT: <1687//
!!!YEP: David Huron and Denis Collins
!!!YEN: Canada
!!!AIN: vox; ?
!!!AST: polyphony
!!!RDT: 1995 July 3
!!!YED: 1995 August 31
!!!AFR: cantus firmus canon
!!!AMT: simple quadruple
!!!EEV: 1.0
